assets/img/braze_icons/video-recorder.svg

<svg fill="none" height="24" viewBox="0 0 24 24" width="24" xmlns="http://www.w3.org/2000/svg"><path clip-rule="evenodd" d="m12.2413 4h-5.4826c-.80496-.00001-1.46933-.00002-2.01052.04419-.5621.04593-1.07881.14449-1.56414.39179-.75265.38349-1.36457.99541-1.74806 1.74806-.2473.48533-.34586 1.00204-.39179 1.56414-.044212.54119-.044202 1.20554-.04419 2.01051v4.48261c-.000012.805-.000022 1.4693.04419 2.0105.04593.5621.14449 1.0788.39179 1.5642.38349.7526.99541 1.3645 1.74806 1.748.48533.2473 1.00204.3459 1.56414.3918.54119.0442 1.20555.0442 2.01052.0442h5.4826c.8049 0 1.4693 0 2.0105-.0442.5621-.0459 1.0788-.1445 1.5642-.3918.7526-.3835 1.3645-.9954 1.748-1.748.2473-.4854.3459-1.0021.3918-1.5642.041-.5019.044-1.1099.0442-1.8377l1.9535 1.9536c.1912.1912.3791.3791.5438.517.1469.1231.4564.3698.885.4035.4787.0377.9465-.1561 1.2583-.5212.2792-.3269.3236-.7202.3405-.9111.019-.214.0189-.4797.0189-.7501v-6.21173c0-.27037.0001-.53615-.0189-.75011-.0169-.19089-.0613-.58415-.3405-.91109-.3118-.36512-.7796-.55888-1.2583-.52121-.4286.03374-.7381.28045-.885.40346-.1647.13788-.3526.32581-.5437.51701l-1.9536 1.9536c-.0002-.72774-.0032-1.33562-.0442-1.83755-.0459-.5621-.1445-1.07881-.3918-1.56414-.3835-.75265-.9954-1.36457-1.748-1.74806-.4854-.2473-1.0021-.34586-1.5642-.39179-.5412-.04421-1.2055-.0442-2.0105-.04419z" fill="#801ed7" fill-rule="evenodd"/></svg>

<svg width="24" height="24" viewBox="0 0 24 24" fill="none" xmlns="http://www.w3.org/2000/svg">
<path fill-rule="evenodd" clip-rule="evenodd" d="M12.2413 4H6.7587C5.95374 3.99999 5.28937 3.99998 4.74818 4.04419C4.18608 4.09012 3.66937 4.18868 3.18404 4.43598C2.43139 4.81947 1.81947 5.43139 1.43598 6.18404C1.18868 6.66937 1.09012 7.18608 1.04419 7.74818C0.999978 8.28937 0.999988 8.95372 1 9.75869V14.2413C0.999988 15.0463 0.999978 15.7106 1.04419 16.2518C1.09012 16.8139 1.18868 17.3306 1.43598 17.816C1.81947 18.5686 2.43139 19.1805 3.18404 19.564C3.66937 19.8113 4.18608 19.9099 4.74818 19.9558C5.28937 20 5.95373 20 6.7587 20H12.2413C13.0462 20 13.7106 20 14.2518 19.9558C14.8139 19.9099 15.3306 19.8113 15.816 19.564C16.5686 19.1805 17.1805 18.5686 17.564 17.816C17.8113 17.3306 17.9099 16.8139 17.9558 16.2518C17.9968 15.7499 17.9998 15.1419 18 14.4141L19.9535 16.3677C20.1447 16.5589 20.3326 16.7468 20.4973 16.8847C20.6442 17.0078 20.9537 17.2545 21.3823 17.2882C21.861 17.3259 22.3288 17.1321 22.6406 16.767C22.9198 16.4401 22.9642 16.0468 22.9811 15.8559C23.0001 15.6419 23 15.3762 23 15.1058V8.89407C23 8.6237 23.0001 8.35792 22.9811 8.14396C22.9642 7.95307 22.9198 7.55981 22.6406 7.23287C22.3288 6.86775 21.861 6.67399 21.3823 6.71166C20.9537 6.7454 20.6442 6.99211 20.4973 7.11512C20.3326 7.253 20.1447 7.44093 19.9536 7.63213L18 9.58573C17.9998 8.85799 17.9968 8.25011 17.9558 7.74818C17.9099 7.18608 17.8113 6.66937 17.564 6.18404C17.1805 5.43139 16.5686 4.81947 15.816 4.43598C15.3306 4.18868 14.8139 4.09012 14.2518 4.04419C13.7106 3.99998 13.0463 3.99999 12.2413 4Z" fill="#801ED7"/>
</svg>
